icons/Renewablesicons.svg

<svg width="16" height="16" viewBox="0 0 16 16" fill="none" xmlns="http://www.w3.org/2000/svg">
<g clip-path="url(#clip0_4_821)">
<path d="M14.7593 15.6854H9.22895C8.83393 15.6854 8.53766 15.3894 8.53766 14.9948L8.98206 12.3313C8.98206 11.986 9.27833 11.69 9.67336 11.69H14.3643C14.7593 11.69 15.0556 11.986 15.0556 12.3806L15.5 14.9948C15.4506 15.3401 15.1543 15.6854 14.7593 15.6854V15.6854ZM9.67336 12.0353C9.52522 12.0353 9.42647 12.1833 9.42647 12.3313L8.98206 14.9948C8.98206 15.0935 9.08082 15.1921 9.22895 15.1921H14.7593C14.9075 15.1921 15.0062 15.0935 15.0062 14.9455L14.5618 12.3313C14.5618 12.1833 14.4631 12.0353 14.3149 12.0353H9.67336V12.0353Z" fill="#3D3D3D"/>
<path d="M9.82251 15.2735L10.019 11.9249L10.4629 11.951L10.2659 15.2992L9.82251 15.2735ZM11.1547 11.9367H11.5991V15.1922H11.1547V11.9367Z" fill="#3D3D3D"/>
<path d="M8.97864 13.3193L15.0028 13.2191L15.0097 13.6632L8.98654 13.7634L8.97864 13.3193Z" fill="#3D3D3D"/>
<path d="M12.3398 11.9367H12.7842V15.1922H12.3398V11.9367ZM13.5244 11.9441L13.9688 11.9308L14.0675 15.1848L13.6231 15.1981L13.5244 11.9441ZM5.08118 6.75757L4.68616 6.70824L5.03181 1.62776C5.03181 1.18383 5.37745 0.838556 5.87124 0.838556C6.36502 0.838556 6.71067 1.18383 6.71067 1.67708L7.00694 6.70824L6.56253 6.75757L6.21688 1.67708C6.21688 1.47978 6.06875 1.28248 5.87124 1.28248C5.67372 1.28248 5.52559 1.43046 5.52559 1.62776L5.08118 6.75757V6.75757Z" fill="#3D3D3D"/>
<path d="M10.3153 11.0981C10.1671 11.0981 9.96962 11.0488 9.87086 10.9501L5.57495 8.43454L5.72309 7.99062L10.1178 10.5555C10.3153 10.6542 10.5128 10.6542 10.6115 10.4569C10.7103 10.3089 10.6609 10.0623 10.5128 9.96362L6.56252 6.75749L6.80941 6.41222L10.809 9.61835C11.1547 9.86497 11.2535 10.3582 11.0066 10.7528C10.8584 10.9501 10.5622 11.0981 10.3153 11.0981V11.0981Z" fill="#3D3D3D"/>
<path d="M1.32844 11.0981C1.08155 11.1474 0.834659 10.9994 0.637146 10.7528C0.390255 10.3582 0.489011 9.86497 0.834659 9.61835L4.78492 6.41222L5.08119 6.75749L1.08155 9.96362C0.884037 10.0623 0.884038 10.3089 0.982794 10.4569C1.08155 10.6048 1.32844 10.6542 1.47658 10.5555L5.72311 7.99062L5.97 8.38522L1.72347 10.9008C1.52596 10.9994 1.52596 11.0488 1.32844 11.0981V11.0981Z" fill="#3D3D3D"/>
<path d="M5.82185 7.69507C6.06728 7.69507 6.26625 7.49622 6.26625 7.25094C6.26625 7.00565 6.06728 6.80681 5.82185 6.80681C5.57641 6.80681 5.37744 7.00565 5.37744 7.25094C5.37744 7.49622 5.57641 7.69507 5.82185 7.69507Z" fill="#3D3D3D"/>
<path d="M6.51315 15.8333H5.32807C5.08118 15.8333 4.83429 15.636 4.83429 15.1428L5.17994 10.3582C5.17994 10.2103 5.27869 10.1116 5.42683 10.1609C5.57496 10.1609 5.67372 10.2596 5.62434 10.4076L5.27869 15.1921C5.27869 15.3401 5.32807 15.3894 5.32807 15.3894H6.51315C6.56253 15.3894 6.56253 15.3401 6.56253 15.3401L6.21688 10.4076C6.21688 10.2596 6.31564 10.1609 6.41439 10.1609C6.56253 10.1609 6.66129 10.2596 6.66129 10.3582L7.00693 15.2908C7.00693 15.5867 6.76004 15.8333 6.51315 15.8333ZM11.7472 1.57838C11.6485 1.57838 11.5497 1.47973 11.5497 1.38108V0.246607C11.5497 0.147957 11.6485 0.0493069 11.7472 0.0493069C11.846 0.0493069 11.9448 0.147957 11.9448 0.246607V1.43041C11.9448 1.52906 11.846 1.57838 11.7472 1.57838Z" fill="#3D3D3D"/>
<path d="M11.7471 1.67705C11.5991 1.67705 11.5004 1.5784 11.5004 1.43043V0.246625C11.5004 0.0986502 11.5991 0 11.7471 0C11.8951 0 11.9938 0.0986502 11.9938 0.246625V1.43043C11.9938 1.52908 11.8951 1.67705 11.7471 1.67705ZM11.7471 0.0986503C11.6978 0.0986503 11.6484 0.147975 11.6484 0.1973V1.3811C11.6484 1.43043 11.6978 1.47975 11.7471 1.47975C11.7965 1.47975 11.8458 1.43043 11.8458 1.3811V0.246625C11.8458 0.1973 11.7965 0.0986503 11.7471 0.0986503V0.0986503ZM11.7471 6.95484C11.6484 6.95484 11.5497 6.85619 11.5497 6.75754V5.57373C11.5497 5.47508 11.6484 5.37643 11.7471 5.37643C11.8458 5.37643 11.9445 5.47508 11.9445 5.57373V6.75754C11.9445 6.90551 11.8458 6.95484 11.7471 6.95484V6.95484Z" fill="#3D3D3D"/>
<path d="M11.7473 7.0535C11.5991 7.0535 11.5004 6.95485 11.5004 6.80687V5.62307C11.5004 5.47509 11.5991 5.37644 11.7473 5.37644C11.8954 5.37644 11.9941 5.47509 11.9941 5.62307V6.80687C11.9941 6.90552 11.8954 7.0535 11.7473 7.0535ZM11.7473 5.47509C11.6979 5.47509 11.6485 5.52442 11.6485 5.57374V6.75755C11.6485 6.80687 11.6979 6.8562 11.7473 6.8562C11.7966 6.8562 11.846 6.80687 11.846 6.75755V5.57374C11.846 5.52442 11.7966 5.47509 11.7473 5.47509ZM13.673 3.50209C13.673 3.40344 13.7718 3.30479 13.8705 3.30479H15.0556C15.1544 3.30479 15.2531 3.40344 15.2531 3.50209C15.2531 3.60074 15.1544 3.69939 15.0556 3.69939H13.8705C13.7224 3.69939 13.673 3.60074 13.673 3.50209Z" fill="#3D3D3D"/>
<path d="M13.5743 3.50216C13.5743 3.35411 13.673 3.25542 13.8212 3.25542H15.0063C15.1544 3.25542 15.2531 3.35411 15.2531 3.50216C15.2531 3.6502 15.1544 3.74889 15.0063 3.74889H13.8212C13.7224 3.74889 13.5743 3.6502 13.5743 3.50216ZM15.1544 3.50216C15.1544 3.45281 15.105 3.40346 15.0556 3.40346H13.8706C13.8212 3.40346 13.7718 3.45281 13.7718 3.50216C13.7718 3.5515 13.8212 3.60085 13.8706 3.60085H15.0556C15.0556 3.6502 15.1544 3.60085 15.1544 3.50216Z" fill="#3D3D3D"/>
<path d="M8.29071 3.5021C8.29071 3.4034 8.38947 3.30471 8.48822 3.30471H9.6733C9.77206 3.30471 9.87081 3.4034 9.87081 3.5021C9.87081 3.60079 9.77206 3.69949 9.6733 3.69949H8.48822C8.34009 3.69949 8.29071 3.60079 8.29071 3.5021Z" fill="#3D3D3D"/>
<path d="M8.19202 3.50216C8.19202 3.35411 8.29077 3.25542 8.43891 3.25542H9.62399C9.77212 3.25542 9.87088 3.35411 9.87088 3.50216C9.87088 3.6502 9.77212 3.74889 9.62399 3.74889H8.43891C8.34015 3.74889 8.19202 3.6502 8.19202 3.50216ZM9.77212 3.50216C9.77212 3.45281 9.72274 3.40346 9.67336 3.40346H8.48829C8.43891 3.40346 8.38953 3.45281 8.38953 3.50216C8.38953 3.5515 8.43891 3.60085 8.48829 3.60085H9.67336C9.72274 3.6502 9.77212 3.60085 9.77212 3.50216Z" fill="#3D3D3D"/>
<path d="M13.0805 2.12098C13.0311 2.07165 12.9817 1.92368 13.0805 1.87435L13.8705 1.03583C13.9199 0.986503 14.068 0.937178 14.1174 1.03583C14.1668 1.08515 14.2162 1.23313 14.1174 1.28245L13.3273 2.12098C13.278 2.21963 13.1298 2.21963 13.0805 2.12098Z" fill="#3D3D3D"/>
<path d="M13.0311 2.17029C12.9323 2.07164 12.9323 1.92366 13.0311 1.82501L13.8212 0.986484C13.9199 0.887834 14.068 0.887834 14.1668 0.986484C14.2656 1.08513 14.2656 1.23311 14.1668 1.33176L13.3767 2.17029C13.278 2.26894 13.1299 2.26894 13.0311 2.17029ZM14.1174 1.08513C14.068 1.03581 13.9693 1.03581 13.9199 1.08513L13.1299 1.92366C13.0805 1.97299 13.0805 2.07164 13.1299 2.12096C13.1792 2.17029 13.278 2.17029 13.3274 2.12096L14.1174 1.28243C14.1668 1.18378 14.1668 1.13446 14.1174 1.08513Z" fill="#3D3D3D"/>
<path d="M9.32771 6.01764C9.27833 5.96832 9.22895 5.82034 9.32771 5.77102L10.1178 4.93249C10.1671 4.88317 10.3153 4.83384 10.3647 4.93249C10.414 4.98182 10.4634 5.12979 10.3647 5.17912L9.5746 6.01764C9.52522 6.06697 9.42646 6.06697 9.32771 6.01764Z" fill="#3D3D3D"/>
<path d="M9.32773 6.06696C9.22897 5.96831 9.22897 5.82034 9.32773 5.72169L10.1178 4.88316C10.2165 4.78451 10.3647 4.78451 10.4634 4.88316C10.5622 4.98181 10.5622 5.12979 10.4634 5.22844L9.67338 6.06696C9.57462 6.16561 9.37711 6.16561 9.32773 6.06696ZM10.3647 4.93249C10.3153 4.88316 10.2165 4.88316 10.1672 4.93249L9.37711 5.77101C9.32773 5.82034 9.32773 5.91899 9.37711 5.96831C9.42649 6.01764 9.52524 6.01764 9.57462 5.96831L10.3647 5.12979C10.4141 5.08046 10.4141 4.98181 10.3647 4.93249Z" fill="#3D3D3D"/>
<path d="M10.414 2.12098C10.4634 2.07165 10.5128 1.92368 10.414 1.87435L9.62395 1.03583C9.57457 0.986503 9.42643 0.937178 9.37705 1.03583C9.32768 1.08515 9.2783 1.23313 9.37705 1.28245L10.1671 2.12098C10.2165 2.21963 10.3646 2.21963 10.414 2.12098Z" fill="#3D3D3D"/>
<path d="M10.1178 2.17031L9.32773 1.33178C9.22897 1.23313 9.22897 1.08516 9.32773 0.986505C9.42649 0.887855 9.57462 0.887855 9.67338 0.986505L10.4634 1.82503C10.5622 1.92368 10.5622 2.07166 10.4634 2.17031C10.3647 2.26896 10.2165 2.26896 10.1178 2.17031ZM9.37711 1.23313L10.1672 2.07166C10.2165 2.12098 10.3153 2.12098 10.3647 2.07166C10.4141 2.02233 10.4141 1.92368 10.3647 1.87436L9.57462 1.03583C9.52524 0.986505 9.42649 0.986505 9.37711 1.03583C9.32773 1.08516 9.32773 1.18381 9.37711 1.23313Z" fill="#3D3D3D"/>
<path d="M14.1174 6.01764C14.1667 5.96832 14.2161 5.82034 14.1174 5.77102L13.3273 4.93249C13.2779 4.88317 13.1298 4.83384 13.0804 4.93249C13.031 4.98182 12.9817 5.12979 13.0804 5.17912L13.8705 6.01764C13.9692 6.06697 14.068 6.06697 14.1174 6.01764Z" fill="#3D3D3D"/>
<path d="M13.8212 6.06696L13.0311 5.22844C12.9323 5.12979 12.9323 4.98181 13.0311 4.88316C13.1299 4.78451 13.278 4.78451 13.3767 4.88316L14.1668 5.72169C14.2656 5.82034 14.2656 5.96831 14.1668 6.06696C14.068 6.16561 13.9199 6.16561 13.8212 6.06696ZM13.1299 5.12979L13.9199 5.96831C13.9693 6.01764 14.068 6.01764 14.1174 5.96831C14.1668 5.91899 14.1668 5.82034 14.1174 5.77101L13.3274 4.93249C13.278 4.88316 13.1792 4.88316 13.1299 4.93249C13.0805 4.98181 13.0805 5.08046 13.1299 5.12979Z" fill="#3D3D3D"/>
<path d="M11.7473 4.83388C11.0066 4.83388 10.4141 4.24198 10.4141 3.5021C10.4141 2.76222 11.0066 2.17032 11.7473 2.17032C11.9942 2.17032 12.2411 2.21965 12.4386 2.36762C12.5373 2.41695 12.5373 2.5156 12.4879 2.61425C12.4386 2.7129 12.3398 2.7129 12.2411 2.66357C12.0929 2.56492 11.8954 2.5156 11.7473 2.5156C11.2041 2.5156 10.8091 2.95952 10.8091 3.45277C10.8091 3.94603 11.2535 4.38995 11.7473 4.38995C12.2411 4.38995 12.6855 3.94603 12.6855 3.45277C12.6855 3.35412 12.6855 3.25547 12.6361 3.15682C12.5867 3.05817 12.6361 2.95952 12.7348 2.9102C12.8336 2.86087 12.9324 2.9102 12.9817 3.00885C13.0311 3.15682 13.0311 3.25547 13.0311 3.40345C13.0311 4.24198 12.488 4.83388 11.7473 4.83388Z" fill="#3D3D3D"/>
</g>
<defs>
<clipPath id="clip0_4_821">
<rect width="16" height="16" fill="white"/>
</clipPath>
</defs>
</svg>

<svg xmlns="http://www.w3.org/2000/svg" width="16" height="16" fill="currentColor" class="si si-Renewablesicons" viewBox="0 0 16 16">
  <g clip-path="url(#a)">
    <path d="M14.76 15.685H9.228a.675.675 0 0 1-.691-.69l.444-2.664c0-.345.296-.641.691-.641h4.691c.395 0 .692.296.692.69l.444 2.615c-.05.345-.346.69-.74.69m-5.087-3.65c-.148 0-.247.148-.247.296l-.444 2.664c0 .099.099.197.247.197h5.53c.149 0 .247-.098.247-.247l-.444-2.614c0-.148-.099-.296-.247-.296z"/>
    <path d="m9.823 15.274.196-3.35.444.027-.197 3.348zm1.332-3.337h.444v3.255h-.444z"/>
    <path d="m8.979 13.32 6.024-.1.007.443-6.023.1z"/>
    <path d="M12.34 11.937h.444v3.255h-.444zm1.184.007.445-.013.099 3.254-.445.013zM5.081 6.758l-.395-.05.346-5.08c0-.444.345-.79.84-.79.493 0 .839.346.839.84l.296 5.03-.444.05-.346-5.08c0-.198-.148-.396-.346-.396a.337.337 0 0 0-.345.346z"/>
    <path d="M10.315 11.098c-.148 0-.345-.05-.444-.148L5.575 8.435l.148-.444 4.395 2.565c.197.098.395.098.493-.1a.38.38 0 0 0-.098-.492l-3.95-3.207.246-.345 4 3.206c.346.247.445.74.198 1.135a.94.94 0 0 1-.692.345"/>
    <path d="M1.328 11.098c-.246.05-.493-.099-.69-.345-.248-.395-.149-.888.197-1.135l3.95-3.206.296.345-4 3.207c-.197.098-.197.345-.098.493a.38.38 0 0 0 .494.098l4.246-2.564.247.394-4.247 2.516c-.197.098-.197.148-.395.197"/>
    <path d="M5.822 7.695a.444.444 0 1 0 0-.888.444.444 0 0 0 0 .888m.691 8.138H5.328c-.247 0-.494-.197-.494-.69l.346-4.785c0-.148.099-.246.247-.197.148 0 .247.099.197.247l-.345 4.784c0 .148.05.197.05.197h1.184c.05 0 .05-.049.05-.049l-.346-4.932c0-.148.099-.247.197-.247.149 0 .247.099.247.197l.346 4.933c0 .296-.247.542-.494.542m5.234-14.255a.21.21 0 0 1-.197-.197V.247c0-.099.098-.198.197-.198s.198.099.198.198V1.43c0 .1-.099.148-.198.148"/>
    <path d="M11.747 1.677c-.148 0-.247-.099-.247-.247V.247c0-.148.1-.247.247-.247.148 0 .247.099.247.247V1.43c0 .1-.099.247-.247.247m0-1.578c-.05 0-.099.049-.099.098v1.184c0 .05.05.099.1.099.049 0 .098-.05.098-.099V.247c0-.05-.05-.148-.099-.148m0 6.856a.21.21 0 0 1-.197-.197V5.574c0-.099.098-.198.197-.198s.197.1.197.198v1.184c0 .148-.098.197-.197.197"/>
    <path d="M11.747 7.054a.234.234 0 0 1-.247-.247V5.623c0-.148.1-.247.247-.247.148 0 .247.1.247.247v1.184c0 .099-.099.246-.247.246m0-1.579c-.05 0-.098.05-.098.099v1.184c0 .049.049.098.098.098.05 0 .099-.05.099-.098V5.574c0-.05-.05-.099-.099-.099m1.926-1.973c0-.099.099-.197.197-.197h1.186c.098 0 .197.098.197.197a.21.21 0 0 1-.197.197H13.87c-.149 0-.198-.098-.198-.197"/>
    <path d="M13.574 3.502c0-.148.099-.247.247-.247h1.185c.148 0 .247.1.247.247 0 .148-.099.247-.247.247h-1.185c-.099 0-.247-.099-.247-.247m1.58 0c0-.05-.049-.099-.098-.099H13.87c-.05 0-.1.05-.1.1 0 .048.05.098.1.098h1.185c0 .05.098 0 .098-.099m-6.863 0c0-.099.1-.197.198-.197h1.185c.1 0 .198.098.198.197a.21.21 0 0 1-.198.197H8.488c-.148 0-.197-.098-.197-.197"/>
    <path d="M8.192 3.502c0-.148.099-.247.247-.247h1.185c.148 0 .247.1.247.247 0 .148-.099.247-.247.247H8.439c-.099 0-.247-.099-.247-.247m1.58 0c0-.05-.05-.099-.099-.099H8.488c-.05 0-.098.05-.098.1 0 .048.049.098.098.098h1.185c.05.05.1 0 .1-.099m3.307-1.381c-.049-.05-.098-.197 0-.247l.79-.838c.05-.05.198-.099.247 0 .05.05.1.197 0 .246l-.79.839c-.049.099-.197.099-.246 0"/>
    <path d="M13.031 2.17a.24.24 0 0 1 0-.345l.79-.839a.24.24 0 0 1 .346 0 .24.24 0 0 1 0 .346l-.79.838a.24.24 0 0 1-.346 0m1.086-1.085a.15.15 0 0 0-.197 0l-.79.839a.15.15 0 0 0 0 .197c.05.05.148.05.197 0l.79-.839c.05-.098.05-.148 0-.197M9.328 6.018c-.05-.05-.1-.198 0-.247l.79-.839c.05-.049.197-.098.247 0 .049.05.098.198 0 .247l-.79.839c-.05.049-.149.049-.247 0"/>
    <path d="M9.328 6.067a.24.24 0 0 1 0-.345l.79-.839a.24.24 0 0 1 .345 0 .24.24 0 0 1 0 .345l-.79.839c-.098.099-.296.099-.345 0m1.037-1.135a.15.15 0 0 0-.198 0l-.79.839a.15.15 0 0 0 0 .197c.05.05.148.05.198 0l.79-.838a.15.15 0 0 0 0-.198m.049-2.811c.05-.05.099-.197 0-.247l-.79-.838c-.05-.05-.198-.099-.247 0-.05.05-.099.197 0 .246l.79.839c.05.099.198.099.247 0"/>
    <path d="m10.118 2.17-.79-.838a.24.24 0 0 1 0-.345.24.24 0 0 1 .345 0l.79.838a.24.24 0 0 1 0 .345.24.24 0 0 1-.345 0m-.74-.937.79.839c.049.049.147.049.197 0a.15.15 0 0 0 0-.198l-.79-.838a.15.15 0 0 0-.198 0 .15.15 0 0 0 0 .197m4.74 4.785c.05-.05.1-.198 0-.247l-.79-.839c-.05-.049-.197-.098-.247 0-.049.05-.098.198 0 .247l.79.839c.1.049.198.049.247 0"/>
    <path d="m13.821 6.067-.79-.839a.24.24 0 0 1 0-.345.24.24 0 0 1 .346 0l.79.839a.24.24 0 0 1 0 .345.24.24 0 0 1-.346 0m-.691-.937.79.838c.05.05.148.05.197 0a.15.15 0 0 0 0-.197l-.79-.839a.15.15 0 0 0-.197 0 .15.15 0 0 0 0 .198m-1.383-.296c-.74 0-1.333-.592-1.333-1.332s.593-1.332 1.333-1.332c.247 0 .494.05.692.198.098.049.098.148.049.246-.05.099-.148.099-.247.05a.95.95 0 0 0-.494-.148.937.937 0 0 0-.938.937c0 .493.445.937.938.937.494 0 .938-.444.938-.937 0-.099 0-.198-.049-.296-.05-.099 0-.197.099-.247s.197 0 .247.099c.05.148.05.246.05.394 0 .839-.544 1.43-1.285 1.43"/>
  </g>
  <defs>
    <clipPath id="a">
      <path d="M0 0h16v16H0z"/>
    </clipPath>
  </defs>
</svg>
